X: 1
T: Big Sandy
O: Fat City String Band
N: "[The Original]"
R: march
Z: 2020 John Chambers <jc:trillian.mit.edu>
S: https://www.facebook.com/groups/Fiddletuneoftheday/ 2020-7-6
S: https://www.facebook.com/groups/Fiddletuneoftheday/photos/
M: C
L: 1/4
K: D
|: "D"Ad f>a   | ba f2 | Ad  ff/a/ |    ba "A"e2 |\
|     Ac ee/f/ | gf e2 | Ace  e/g/ | "D"fe [1 d2 :|[2 d>B ||
|: "D"Ad f>e   | fg fe | dc "G"B>A | Bd    B2 |\
|  "A"cd e>d   | ef ec | BA "D"d>c | dB [1 A2 :|[2 d2 |]
